Newaita-dark/apps/32/com.github.bartzaalberg.alias.svg

<svg height="32pt" viewBox="0 0 32 32" width="32pt" xmlns="http://www.w3.org/2000/svg" xmlns:xlink="http://www.w3.org/1999/xlink"><linearGradient id="a"><stop offset="0" stop-opacity=".313725"/><stop offset=".222222" stop-opacity=".27451"/><stop offset="1" stop-opacity="0"/></linearGradient><radialGradient id="b" cx="450.90894" cy="189.57936" gradientTransform="matrix(.00000017 -.0781325 -.140638 -.0000001 44.523152 63.595332)" gradientUnits="userSpaceOnUse" r="21.166656" xlink:href="#a"/><radialGradient id="c" cx="450.90894" cy="189.57936" gradientTransform="matrix(-.00000017 .0781325 .140638 .0000001 -12.770121 -7.527481)" gradientUnits="userSpaceOnUse" r="21.166656" xlink:href="#a"/><radialGradient id="d" cx="450.90894" cy="189.57936" gradientTransform="matrix(-.00000017 -.0781325 .140638 -.0000001 -12.770121 63.595332)" gradientUnits="userSpaceOnUse" r="21.166656" xlink:href="#a"/><radialGradient id="e" cx="450.90894" cy="189.57936" gradientTransform="matrix(.00000017 .0781325 -.140638 .0000001 44.52315 -7.527482)" gradientUnits="userSpaceOnUse" r="21.166656" xlink:href="#a"/><linearGradient id="f" gradientTransform="matrix(.0133601 0 0 .062506 12.465386 13.438784)" gradientUnits="userSpaceOnUse" x1="255.32306" x2="255.32304" y1="233.5" y2="254.66666"><stop offset="0" stop-opacity=".27451"/><stop offset="1" stop-opacity="0"/></linearGradient><linearGradient id="g" gradientUnits="userSpaceOnUse" x1="254" x2="254" y1="-168.66667" y2="233.5"><stop offset="0" stop-color="#64b5f6"/><stop offset="1" stop-color="#42a5f5"/></linearGradient><linearGradient id="h" gradientUnits="userSpaceOnUse" x1="15.551954" x2="15.551954" y1="28.0338647916" y2="2.89610363394"><stop offset="0" stop-color="#bdbdbd"/><stop offset="1" stop-color="#e0e0e0"/></linearGradient><path d="m18.191406 28.035156h2.648438v-1.324218h-2.648438zm0 0" fill="url(#b)"/><path d="m13.5625 28.035156h-2.648438v1.320313h2.648438zm0 0" fill="url(#c)"/><path d="m13.5625 28.035156h-2.648438v-1.324218h2.648438zm0 0" fill="url(#d)"/><path d="m18.191406 28.035156h2.648438v1.320313h-2.648438zm0 0" fill="url(#e)"/><path d="m13.5625 27.703125h4.628906v1.652344h-4.628906zm0 0" fill="url(#f)"/><path d="m253.975747-168.691922c111.051895 0 201.105795 90.0539 201.105795 201.105795s-90.0539 201.105796-201.105795 201.105796c-111.051896 0-201.043302-90.053901-201.043302-201.105796s89.991406-201.105795 201.043302-201.105795zm0 0" fill="url(#g)" stroke="#333" stroke-linecap="round" stroke-width="3" transform="matrix(.062506 0 0 .062506 0 13.438783)"/><path d="m15.875 28.035156c-6.960938 0-12.566406-5.605468-12.566406-12.570312 0-.039063 0-.082032 0-.121094.066406 6.902344 5.644531 12.445312 12.566406 12.445312s12.503906-5.542968 12.570312-12.445312v.121094c0 6.964844-5.605468 12.570312-12.570312 12.570312zm0 0" fill-opacity=".196078"/><path d="m15.875 2.894531c-6.960938 0-12.566406 5.605469-12.566406 12.570313v.125c.066406-6.90625 5.644531-12.449219 12.566406-12.449219s12.503906 5.542969 12.570312 12.449219c0-.042969 0-.082032 0-.125 0-6.964844-5.605468-12.570313-12.570312-12.570313zm0 0" fill="#fff" fill-opacity=".392157"/><path d="m15.875 2.800781c-7.011719 0-12.660156 5.652344-12.660156 12.664063 0 7.011718 5.648437 12.664062 12.660156 12.664062 7.015625 0 12.664062-5.652344 12.664062-12.664062 0-7.011719-5.648437-12.664063-12.664062-12.664063zm0 .1875c6.914062 0 12.476562 5.5625 12.476562 12.476563 0 6.914062-5.5625 12.476562-12.476562 12.476562-6.910156 0-12.472656-5.5625-12.472656-12.476562 0-6.914063 5.5625-12.476563 12.472656-12.476563zm0 0" fill="#212121"/><path d="m19.144531 7.851562c-1.886719 0-3.980469.035157-5.695312 1.367188-1.824219 1.417969-2.863281 4.113281-2.863281 8.878906v3.320313c-.007813.359375.183593.695312.492187.878906.3125.179687.695313.179687 1.007813 0 .3125-.183594.5-.519531.496093-.878906v-3.320313c0-.585937.015625-1.132812.046875-1.632812h5.894532v4.953125c-.007813.359375.183593.695312.492187.878906.3125.179687.699219.179687 1.007813 0 .3125-.183594.5-.519531.496093-.878906v-5.8125c.015625-.09375.015625-.1875 0-.285157v-6.46875c0-.554687-.445312-1-1-1-.121093 0-.246093 0-.375 0zm-.621093 2.011719v4.601563h-5.664063c.363281-2 1.042969-3.070313 1.816406-3.671875.949219-.734375 2.292969-.894531 3.847657-.929688zm0 0" fill="url(#h)"/><path d="m19.144531 7.851562c-1.886719 0-3.980469.035157-5.695312 1.367188-1.824219 1.417969-2.863281 4.113281-2.863281 8.878906v.503906c0-4.769531 1.039062-7.460937 2.863281-8.882812 1.714843-1.328125 3.808593-1.367188 5.695312-1.363281h.375c.554688 0 1 .445312 1 .996093v-.5c0-.554687-.445312-1-1-1-.121093 0-.246093 0-.375 0zm-6.183593 6.613282c-.035157.164062-.070313.328125-.101563.503906h5.664063v-.503906zm7.558593.855468v.285157c.015625-.09375.015625-.1875 0-.285157zm0 0" fill="#fff"/><path d="m18.523438 9.859375c-1.554688.035156-2.898438.191406-3.847657.929687-.773437.597657-1.453125 1.667969-1.816406 3.671876h.140625c.382812-1.582032.992188-2.480469 1.675781-3.011719.949219-.738281 2.292969-.894531 3.847657-.929688zm1.996093 6.117187v.285157c.015625-.09375.015625-.191407 0-.285157zm-7.890625.480469c-.03125.503907-.046875 1.046875-.046875 1.632813v.664062c0-.589844.015625-1.132812.046875-1.636718h5.894532v-.660157zm-2.042968 4.957031v.660157c-.007813.359375.183593.695312.492187.878906.3125.179687.695313.179687 1.007813 0 .3125-.183594.5-.519531.496093-.878906v-.660157c.003907.359376-.183593.695313-.496093.875-.3125.183594-.695313.183594-1.007813 0-.308594-.179687-.5-.515624-.492187-.875zm7.9375 0v.660157c-.007813.359375.183593.695312.492187.878906.3125.179687.699219.179687 1.007813 0 .3125-.183594.5-.519531.496093-.878906v-.660157c.003907.359376-.183593.695313-.496093.875-.308594.183594-.695313.183594-1.007813 0-.308594-.179687-.5-.515624-.492187-.875zm0 0" fill-opacity=".235294"/><path d="m306.283251-89.386995c-30.184617 0-63.681418.562446-91.116298 21.872911-29.184713 22.685333-45.808126 65.806216-45.808126 142.048935v53.119927c-.124988 5.749451 2.93722 11.123938 7.874248 14.061157 4.999523 2.874726 11.123938 2.874726 16.12346 0 4.999523-2.937219 7.999236-8.311706 7.936742-14.061157v-53.119927c0-9.374105.249977-18.12327.749929-26.122506h94.303494v79.242433c-.124988 5.749451 2.93722 11.123938 7.874248 14.061157 4.999523 2.874726 11.186432 2.874726 16.123461 0 4.999522-2.937219 7.999236-8.311706 7.936742-14.061157v-92.99112c.249976-1.499856.249976-2.999713 0-4.562064v-103.490117c0-8.874153-7.12432-15.998472-15.998473-15.998472-1.937315 0-3.937124 0-5.999427 0zm-9.936551 32.184426v73.61797h-90.616346c5.811945-31.996945 16.685906-49.120309 29.059725-58.74439 15.186049-11.748878 36.683997-14.311134 61.556621-14.87358zm0 0" fill="none" stroke="#212121" stroke-linecap="round" stroke-linejoin="round" stroke-width="3" transform="matrix(.062506 0 0 .062506 0 13.438783)"/></svg>

<?xml version="1.0" encoding="UTF-8"?>
<svg xmlns="http://www.w3.org/2000/svg" xmlns:xlink="http://www.w3.org/1999/xlink" width="32pt" height="32pt" viewBox="0 0 32 32" version="1.1">
<defs>
<radialGradient id="radial0" gradientUnits="userSpaceOnUse" cx="450.90894" cy="189.57936" fx="450.90894" fy="189.57936" r="21.166656" gradientTransform="matrix(0.00000017417,-0.0781325,-0.140638,-0.000000101539,44.523152,63.595332)">
<stop offset="0" style="stop-color:rgb(0%,0%,0%);stop-opacity:0.313725;"/>
<stop offset="0.222222" style="stop-color:rgb(0%,0%,0%);stop-opacity:0.27451;"/>
<stop offset="1" style="stop-color:rgb(0%,0%,0%);stop-opacity:0;"/>
</radialGradient>
<radialGradient id="radial1" gradientUnits="userSpaceOnUse" cx="450.90894" cy="189.57936" fx="450.90894" fy="189.57936" r="21.166656" gradientTransform="matrix(-0.00000017417,0.0781325,0.140638,0.000000101539,-12.770121,-7.527481)">
<stop offset="0" style="stop-color:rgb(0%,0%,0%);stop-opacity:0.313725;"/>
<stop offset="0.222222" style="stop-color:rgb(0%,0%,0%);stop-opacity:0.27451;"/>
<stop offset="1" style="stop-color:rgb(0%,0%,0%);stop-opacity:0;"/>
</radialGradient>
<radialGradient id="radial2" gradientUnits="userSpaceOnUse" cx="450.90894" cy="189.57936" fx="450.90894" fy="189.57936" r="21.166656" gradientTransform="matrix(-0.00000017417,-0.0781325,0.140638,-0.000000101539,-12.770121,63.595332)">
<stop offset="0" style="stop-color:rgb(0%,0%,0%);stop-opacity:0.313725;"/>
<stop offset="0.222222" style="stop-color:rgb(0%,0%,0%);stop-opacity:0.27451;"/>
<stop offset="1" style="stop-color:rgb(0%,0%,0%);stop-opacity:0;"/>
</radialGradient>
<radialGradient id="radial3" gradientUnits="userSpaceOnUse" cx="450.90894" cy="189.57936" fx="450.90894" fy="189.57936" r="21.166656" gradientTransform="matrix(0.00000017417,0.0781325,-0.140638,0.000000101539,44.52315,-7.527482)">
<stop offset="0" style="stop-color:rgb(0%,0%,0%);stop-opacity:0.313725;"/>
<stop offset="0.222222" style="stop-color:rgb(0%,0%,0%);stop-opacity:0.27451;"/>
<stop offset="1" style="stop-color:rgb(0%,0%,0%);stop-opacity:0;"/>
</radialGradient>
<linearGradient id="linear0" gradientUnits="userSpaceOnUse" x1="255.32306" y1="233.5" x2="255.32304" y2="254.66666" gradientTransform="matrix(0.0133601,0,0,0.062506,12.465386,13.438784)">
<stop offset="0" style="stop-color:rgb(0%,0%,0%);stop-opacity:0.27451;"/>
<stop offset="1" style="stop-color:rgb(0%,0%,0%);stop-opacity:0;"/>
</linearGradient>
<linearGradient id="linear1" gradientUnits="userSpaceOnUse" x1="254" y1="-168.66667" x2="254" y2="233.5" >
<stop offset="0" style="stop-color:rgb(39.215686%,70.980392%,96.470588%);stop-opacity:1;"/>
<stop offset="1" style="stop-color:rgb(25.882353%,64.705882%,96.078431%);stop-opacity:1;"/>
</linearGradient>
<linearGradient id="linear2" gradientUnits="userSpaceOnUse" x1="960" y1="1695.1182" x2="960" y2="175.11813" gradientTransform="matrix(0.016538,0,0,0.016538,-0.324526,0)">
<stop offset="0" style="stop-color:rgb(74.117647%,74.117647%,74.117647%);stop-opacity:1;"/>
<stop offset="1" style="stop-color:rgb(87.843137%,87.843137%,87.843137%);stop-opacity:1;"/>
</linearGradient>
</defs>
<g id="surface1">
<path style=" stroke:none;fill-rule:nonzero;fill:url(#radial0);" d="M 18.191406 28.035156 L 20.839844 28.035156 L 20.839844 26.710938 L 18.191406 26.710938 Z M 18.191406 28.035156 "/>
<path style=" stroke:none;fill-rule:nonzero;fill:url(#radial1);" d="M 13.5625 28.035156 L 10.914062 28.035156 L 10.914062 29.355469 L 13.5625 29.355469 Z M 13.5625 28.035156 "/>
<path style=" stroke:none;fill-rule:nonzero;fill:url(#radial2);" d="M 13.5625 28.035156 L 10.914062 28.035156 L 10.914062 26.710938 L 13.5625 26.710938 Z M 13.5625 28.035156 "/>
<path style=" stroke:none;fill-rule:nonzero;fill:url(#radial3);" d="M 18.191406 28.035156 L 20.839844 28.035156 L 20.839844 29.355469 L 18.191406 29.355469 Z M 18.191406 28.035156 "/>
<path style=" stroke:none;fill-rule:nonzero;fill:url(#linear0);" d="M 13.5625 27.703125 L 18.191406 27.703125 L 18.191406 29.355469 L 13.5625 29.355469 Z M 13.5625 27.703125 "/>
<path style="fill-rule:nonzero;fill:url(#linear1);stroke-width:3;stroke-linecap:round;stroke-linejoin:miter;stroke:rgb(20%,20%,20%);stroke-opacity:1;stroke-miterlimit:4;" d="M 253.975747 -168.691922 C 365.027642 -168.691922 455.081542 -78.638022 455.081542 32.413873 C 455.081542 143.465768 365.027642 233.519669 253.975747 233.519669 C 142.923851 233.519669 52.932445 143.465768 52.932445 32.413873 C 52.932445 -78.638022 142.923851 -168.691922 253.975747 -168.691922 Z M 253.975747 -168.691922 " transform="matrix(0.062506,0,0,0.062506,0,13.438783)"/>
<path style=" stroke:none;fill-rule:nonzero;fill:rgb(0%,0%,0%);fill-opacity:0.196078;" d="M 15.875 28.035156 C 8.914062 28.035156 3.308594 22.429688 3.308594 15.464844 C 3.308594 15.425781 3.308594 15.382812 3.308594 15.34375 C 3.375 22.246094 8.953125 27.789062 15.875 27.789062 C 22.796875 27.789062 28.378906 22.246094 28.445312 15.34375 C 28.445312 15.382812 28.445312 15.425781 28.445312 15.464844 C 28.445312 22.429688 22.839844 28.035156 15.875 28.035156 Z M 15.875 28.035156 "/>
<path style=" stroke:none;fill-rule:nonzero;fill:rgb(100%,100%,100%);fill-opacity:0.392157;" d="M 15.875 2.894531 C 8.914062 2.894531 3.308594 8.5 3.308594 15.464844 C 3.308594 15.507812 3.308594 15.546875 3.308594 15.589844 C 3.375 8.683594 8.953125 3.140625 15.875 3.140625 C 22.796875 3.140625 28.378906 8.683594 28.445312 15.589844 C 28.445312 15.546875 28.445312 15.507812 28.445312 15.464844 C 28.445312 8.5 22.839844 2.894531 15.875 2.894531 Z M 15.875 2.894531 "/>
<path style=" stroke:none;fill-rule:nonzero;fill:rgb(12.941176%,12.941176%,12.941176%);fill-opacity:1;" d="M 15.875 2.800781 C 8.863281 2.800781 3.214844 8.453125 3.214844 15.464844 C 3.214844 22.476562 8.863281 28.128906 15.875 28.128906 C 22.890625 28.128906 28.539062 22.476562 28.539062 15.464844 C 28.539062 8.453125 22.890625 2.800781 15.875 2.800781 Z M 15.875 2.988281 C 22.789062 2.988281 28.351562 8.550781 28.351562 15.464844 C 28.351562 22.378906 22.789062 27.941406 15.875 27.941406 C 8.964844 27.941406 3.402344 22.378906 3.402344 15.464844 C 3.402344 8.550781 8.964844 2.988281 15.875 2.988281 Z M 15.875 2.988281 "/>
<path style=" stroke:none;fill-rule:nonzero;fill:url(#linear2);" d="M 19.144531 7.851562 C 17.257812 7.851562 15.164062 7.886719 13.449219 9.21875 C 11.625 10.636719 10.585938 13.332031 10.585938 18.097656 L 10.585938 21.417969 C 10.578125 21.777344 10.769531 22.113281 11.078125 22.296875 C 11.390625 22.476562 11.773438 22.476562 12.085938 22.296875 C 12.398438 22.113281 12.585938 21.777344 12.582031 21.417969 L 12.582031 18.097656 C 12.582031 17.511719 12.597656 16.964844 12.628906 16.464844 L 18.523438 16.464844 L 18.523438 21.417969 C 18.515625 21.777344 18.707031 22.113281 19.015625 22.296875 C 19.328125 22.476562 19.714844 22.476562 20.023438 22.296875 C 20.335938 22.113281 20.523438 21.777344 20.519531 21.417969 L 20.519531 15.605469 C 20.535156 15.511719 20.535156 15.417969 20.519531 15.320312 L 20.519531 8.851562 C 20.519531 8.296875 20.074219 7.851562 19.519531 7.851562 C 19.398438 7.851562 19.273438 7.851562 19.144531 7.851562 Z M 18.523438 9.863281 L 18.523438 14.464844 L 12.859375 14.464844 C 13.222656 12.464844 13.902344 11.394531 14.675781 10.792969 C 15.625 10.058594 16.96875 9.898438 18.523438 9.863281 Z M 18.523438 9.863281 "/>
<path style=" stroke:none;fill-rule:nonzero;fill:rgb(100%,100%,100%);fill-opacity:1;" d="M 19.144531 7.851562 C 17.257812 7.851562 15.164062 7.886719 13.449219 9.21875 C 11.625 10.636719 10.585938 13.332031 10.585938 18.097656 L 10.585938 18.601562 C 10.585938 13.832031 11.625 11.140625 13.449219 9.71875 C 15.164062 8.390625 17.257812 8.351562 19.144531 8.355469 C 19.273438 8.355469 19.398438 8.355469 19.519531 8.355469 C 20.074219 8.355469 20.519531 8.800781 20.519531 9.351562 L 20.519531 8.851562 C 20.519531 8.296875 20.074219 7.851562 19.519531 7.851562 C 19.398438 7.851562 19.273438 7.851562 19.144531 7.851562 Z M 12.960938 14.464844 C 12.925781 14.628906 12.890625 14.792969 12.859375 14.96875 L 18.523438 14.96875 L 18.523438 14.464844 Z M 20.519531 15.320312 L 20.519531 15.605469 C 20.535156 15.511719 20.535156 15.417969 20.519531 15.320312 Z M 20.519531 15.320312 "/>
<path style=" stroke:none;fill-rule:nonzero;fill:rgb(0%,0%,0%);fill-opacity:0.235294;" d="M 18.523438 9.859375 C 16.96875 9.894531 15.625 10.050781 14.675781 10.789062 C 13.902344 11.386719 13.222656 12.457031 12.859375 14.460938 L 13 14.460938 C 13.382812 12.878906 13.992188 11.980469 14.675781 11.449219 C 15.625 10.710938 16.96875 10.554688 18.523438 10.519531 Z M 20.519531 15.976562 L 20.519531 16.261719 C 20.535156 16.167969 20.535156 16.070312 20.519531 15.976562 Z M 12.628906 16.457031 C 12.597656 16.960938 12.582031 17.503906 12.582031 18.089844 L 12.582031 18.753906 C 12.582031 18.164062 12.597656 17.621094 12.628906 17.117188 L 18.523438 17.117188 L 18.523438 16.457031 Z M 10.585938 21.414062 L 10.585938 22.074219 C 10.578125 22.433594 10.769531 22.769531 11.078125 22.953125 C 11.390625 23.132812 11.773438 23.132812 12.085938 22.953125 C 12.398438 22.769531 12.585938 22.433594 12.582031 22.074219 L 12.582031 21.414062 C 12.585938 21.773438 12.398438 22.109375 12.085938 22.289062 C 11.773438 22.472656 11.390625 22.472656 11.078125 22.289062 C 10.769531 22.109375 10.578125 21.773438 10.585938 21.414062 Z M 18.523438 21.414062 L 18.523438 22.074219 C 18.515625 22.433594 18.707031 22.769531 19.015625 22.953125 C 19.328125 23.132812 19.714844 23.132812 20.023438 22.953125 C 20.335938 22.769531 20.523438 22.433594 20.519531 22.074219 L 20.519531 21.414062 C 20.523438 21.773438 20.335938 22.109375 20.023438 22.289062 C 19.714844 22.472656 19.328125 22.472656 19.015625 22.289062 C 18.707031 22.109375 18.515625 21.773438 18.523438 21.414062 Z M 18.523438 21.414062 "/>
<path style="fill:none;stroke-width:3;stroke-linecap:round;stroke-linejoin:round;stroke:rgb(12.941176%,12.941176%,12.941176%);stroke-opacity:1;stroke-miterlimit:4;" d="M 306.283251 -89.386995 C 276.098634 -89.386995 242.601833 -88.824549 215.166953 -67.514084 C 185.98224 -44.828751 169.358827 -1.707868 169.358827 74.534851 L 169.358827 127.654778 C 169.233839 133.404229 172.296047 138.778716 177.233075 141.715935 C 182.232598 144.590661 188.357013 144.590661 193.356535 141.715935 C 198.356058 138.778716 201.355771 133.404229 201.293277 127.654778 L 201.293277 74.534851 C 201.293277 65.160746 201.543254 56.411581 202.043206 48.412345 L 296.3467 48.412345 L 296.3467 127.654778 C 296.221712 133.404229 299.28392 138.778716 304.220948 141.715935 C 309.220471 144.590661 315.40738 144.590661 320.344409 141.715935 C 325.343931 138.778716 328.343645 133.404229 328.281151 127.654778 L 328.281151 34.663658 C 328.531127 33.163802 328.531127 31.663945 328.281151 30.101594 L 328.281151 -73.388523 C 328.281151 -82.262676 321.156831 -89.386995 312.282678 -89.386995 C 310.345363 -89.386995 308.345554 -89.386995 306.283251 -89.386995 Z M 296.3467 -57.202569 L 296.3467 16.415401 L 205.730354 16.415401 C 211.542299 -15.581544 222.41626 -32.704908 234.790079 -42.328989 C 249.976128 -54.077867 271.474076 -56.640123 296.3467 -57.202569 Z M 296.3467 -57.202569 " transform="matrix(0.062506,0,0,0.062506,0,13.438783)"/>
</g>
</svg>
